X: 5682
T: Byrne's
R: hornpipe
M: 4/4
K: Amajor
ED|:CA,CD ECA,G|AE (3FGA BGEd|cAdB cA (3BAG|AE (3FGA BGED|
(3CB,A, (3B,CD ECA,G|AE (3FGA BGEd|cAdB cA (3BAG|1 (3AA/A/A (3GAB A_E=E{F}D:|2 EA (3GAB Acdc||
|:BE (3EE/E/E Bc (3dcB|ecAe fdBd|ecAc dBec|(3dcB (3cBA B _E=E{F}D|
(3CB,A, (3B,CD ECA,G|AE (3FGA BGEd|cAdB cA (3BAG|1 EA (3GAB Acdc:|2 (3AA/A/A (3GAB A_E=E{F}D||

